X:72
T:Fox Hunters Jigg. LIT.072
M:9/8
Q:3/8=115
L:1/8
B:Wm. Litten MS, 1802
Z:Village Music Project 2017 Anne Wride
K:D
c2A c2A d2B | c2A c2A B2E | c2A c2A d2B | e2A A2c B2A :|
|: f2 f fef fef | g2B B2d cBA | efg agf edc | e2A A2c B2A :|

